X: 1
T: Midnight Oil
C:\251 George Meikle
R: jig
B: George Meikle "Originally Mine" p.13
Z: 2010 John Chambers <jc:trillian.mit.edu>
M: 6/8
L: 1/8
K: G
D \
|: "G"GDG "Am"ADA | "B/G7"BGB "C"cBc | "G"d2d "Em"deB | "Am"cAA "D7"ABA |
   "G"GDG "Am"ADA | "G7"BGB "C/Am"cBc | "D7"d2d "F#/D7"dec |1 "G"BGG "D7"G2D :|2 "G"BGG "D7"G2d ||
|: "G"dBe "B/G7"dBG | "C"EAG "D7"FED | "G"DGG "Em"GFG | "Am"ABA "D7"FED |
   "G"dBe "B/G7"dBG | "C"EAG "D7"FED | "G"B,DG "Em"BAG |1"D7"FDA "G"G2d :|2 "D7"FDA "G"G2d ||
|: "G"GBd "C"cGE | "D7"DFA "B/G7"BAG | "C"EFG "C#/A7"^CEG | "D7"ABA "F#/D7"FED |
   "G"GBd "C"cGE | "D7"DFA "B/G7"BAG | "C"EFG "A7"ABA |1 "D7"FDA "G"G2"D7"D :|2 "D"FDA "G"G3 |]
%%begintext align
The dance "Midnight Oil" was devised by John Drewry and presented to Mary Prentice whilst on one  of
the  winter holidays.  Mary used to frequently burn the midnight oil.  As the dance starts in a very
similar manner to that in Lothian Lads, I decided that the tune be written with  the  first  8  bars
showing a similarity to Lothian Lads.  The dance was first danced on 1st Feb 1993 in the Ledra Beach
Hotel, Cyprus.
%%endtext

%%sep 1 1 500
%%sep 1 1 500

